d1 $ sound "arpy arpy:4 arpy:8 arpy:1"
|+| speed "0.3"

d1 $ silence


d2 $ degrade $ sound "bd*2 bd sn:1 [bd sn]"

d2 $ silence


d4 $ every 4 (|+| speed rand) $ sound (samples "feel*8" $ irand 8)

d4 $ silence


d3 $ sound "casio:1*4" |+| gain "0.8"

d3 $ silence


hush
